Sources/FrostedUI/Resources/Icons.xcassets/lightsOn20.imageset/lights-on-20.svg

<svg width="20" height="20" viewBox="0 0 20 20" fill="none" xmlns="http://www.w3.org/2000/svg" data-fui-icon="true">
  <path
    d="M12 18.5C12.4142 18.5 12.75 18.8358 12.75 19.25C12.75 19.6642 12.4142 20 12 20H8C7.58579 20 7.25 19.6642 7.25 19.25C7.25 18.8358 7.58579 18.5 8 18.5H12ZM10 4.25C13.4621 4.25 15.75 7.13536 15.75 10C15.75 11.1591 15.3037 12.1912 14.8018 12.9902C14.2976 13.7928 13.706 14.4104 13.3408 14.7559C13.2728 14.8202 13.2501 14.8894 13.25 14.9355C13.25 16.3516 12.1016 17.5 10.6855 17.5H9.31445C7.89836 17.5 6.75 16.3516 6.75 14.9355C6.74987 14.8894 6.72718 14.8202 6.65918 14.7559C6.29403 14.4104 5.70244 13.7928 5.19824 12.9902C4.69631 12.1912 4.25 11.1591 4.25 10C4.25 7.13536 6.53789 4.25 10 4.25ZM3.84473 15.0947C4.13762 14.8018 4.61238 14.8018 4.90527 15.0947C5.19817 15.3876 5.19817 15.8624 4.90527 16.1553L3.96777 17.0928C3.67488 17.3857 3.20012 17.3857 2.90723 17.0928C2.61433 16.7999 2.61433 16.3251 2.90723 16.0322L3.84473 15.0947ZM15.0947 15.0947C15.3876 14.8018 15.8624 14.8018 16.1553 15.0947L17.0928 16.0322C17.3857 16.3251 17.3857 16.7999 17.0928 17.0928C16.7999 17.3857 16.3251 17.3857 16.0322 17.0928L15.0947 16.1553C14.8018 15.8624 14.8018 15.3876 15.0947 15.0947ZM10 5.75C7.46211 5.75 5.75 7.86464 5.75 10C5.75 10.7762 6.05243 11.5297 6.46875 12.1924C6.88264 12.8512 7.37877 13.3712 7.69043 13.666C8.0225 13.9801 8.24988 14.4308 8.25 14.9355C8.25 15.5232 8.72679 16 9.31445 16H10.6855C11.2732 16 11.75 15.5232 11.75 14.9355C11.7501 14.4308 11.9775 13.9801 12.3096 13.666C12.6212 13.3712 13.1174 12.8512 13.5312 12.1924C13.9476 11.5297 14.25 10.7762 14.25 10C14.25 7.86464 12.5379 5.75 10 5.75ZM2.1875 9.25C2.60171 9.25 2.9375 9.58579 2.9375 10C2.93747 10.4142 2.6017 10.75 2.1875 10.75H0.9375C0.523304 10.75 0.187528 10.4142 0.1875 10C0.1875 9.58579 0.523286 9.25 0.9375 9.25H2.1875ZM19.0625 9.25C19.4767 9.25 19.8125 9.5858 19.8125 10C19.8125 10.4142 19.4767 10.75 19.0625 10.75H17.8125C17.3983 10.75 17.0625 10.4142 17.0625 10C17.0625 9.5858 17.3983 9.25002 17.8125 9.25H19.0625ZM2.59473 2.59473C2.88762 2.30183 3.36238 2.30183 3.65527 2.59473L4.59277 3.53223C4.88567 3.82512 4.88567 4.29988 4.59277 4.59277C4.29988 4.88567 3.82512 4.88567 3.53223 4.59277L2.59473 3.65527C2.30183 3.36238 2.30183 2.88762 2.59473 2.59473ZM16.3447 2.59473C16.6376 2.30183 17.1124 2.30183 17.4053 2.59473C17.6982 2.88762 17.6982 3.36238 17.4053 3.65527L16.4678 4.59277C16.1749 4.88567 15.7001 4.88567 15.4072 4.59277C15.1143 4.29988 15.1143 3.82512 15.4072 3.53223L16.3447 2.59473ZM10 0.1875C10.4142 0.1875 10.75 0.523286 10.75 0.9375V2.1875C10.75 2.60171 10.4142 2.9375 10 2.9375C9.58579 2.9375 9.25 2.60171 9.25 2.1875V0.9375C9.25 0.523286 9.58579 0.1875 10 0.1875Z"
    fill="currentColor"
  />
</svg>

<svg xmlns="http://www.w3.org/2000/svg" width="20" height="20" fill="none" data-fui-icon="true" viewBox="0 0 20 20"><path fill="currentColor" d="M12 18.5a.75.75 0 0 1 0 1.5H8a.75.75 0 0 1 0-1.5zM10 4.25c3.462 0 5.75 2.885 5.75 5.75 0 1.16-.446 2.191-.948 2.99a9.3 9.3 0 0 1-1.461 1.766.26.26 0 0 0-.091.18 2.565 2.565 0 0 1-2.565 2.564h-1.37a2.565 2.565 0 0 1-2.565-2.565.26.26 0 0 0-.09-.18 9.3 9.3 0 0 1-1.462-1.765c-.502-.799-.948-1.83-.948-2.99 0-2.865 2.288-5.75 5.75-5.75M3.845 15.095a.75.75 0 1 1 1.06 1.06l-.937.938a.75.75 0 1 1-1.06-1.06zm11.25 0a.75.75 0 0 1 1.06 0l.938.937a.75.75 0 1 1-1.06 1.06l-.938-.937a.75.75 0 0 1 0-1.06M10 5.75c-2.538 0-4.25 2.115-4.25 4.25 0 .776.302 1.53.719 2.192.414.66.91 1.18 1.221 1.474.333.314.56.765.56 1.27 0 .587.477 1.064 1.064 1.064h1.371c.588 0 1.065-.477 1.065-1.065 0-.504.227-.955.56-1.269a7.8 7.8 0 0 0 1.221-1.474c.417-.662.719-1.416.719-2.192 0-2.135-1.712-4.25-4.25-4.25m-7.812 3.5a.75.75 0 0 1 0 1.5H.938a.75.75 0 0 1 0-1.5zm16.875 0a.75.75 0 0 1 0 1.5h-1.25a.75.75 0 0 1 0-1.5zM2.595 2.595a.75.75 0 0 1 1.06 0l.938.937a.75.75 0 1 1-1.06 1.06l-.938-.937a.75.75 0 0 1 0-1.06m13.75 0a.75.75 0 1 1 1.06 1.06l-.937.938a.75.75 0 1 1-1.06-1.06zM10 .188a.75.75 0 0 1 .75.75v1.25a.75.75 0 0 1-1.5 0V.938a.75.75 0 0 1 .75-.75"/></svg>
